X:83
T:Hast to the Wedding. JBi.82
M:6/8
Q:3/8=120
S:James Biggins MS, Leeds, 1779
R:.Jig
O:England
A:Yorkshire
N:Hast = Haste. Edit to tast!
Z:vmp.Chris Partington
K:C
â€œ_as writtenâ€GEG Gge|dAd edA|GEG AcE|DDDD3|!
GEG Gge|dAd edA|GEG ege|cccc3:|!
|:geg geg|afa afa|geg geg|fddd3|!
efge3|dcd edA|GEG ege|cccc3:|

